assets/Rat/Flat/rat_flat.svg

<svg width="32" height="32" viewBox="0 0 32 32" fill="none" xmlns="http://www.w3.org/2000/svg">
<path d="M10.32 10.64C12.7059 10.64 14.64 8.70587 14.64 6.32C14.64 3.93413 12.7059 2 10.32 2C7.93413 2 6 3.93413 6 6.32C6 8.70587 7.93413 10.64 10.32 10.64Z" fill="#212121"/>
<path d="M13.34 2C15.73 2 17.67 3.94 17.67 6.33C17.67 6.43325 17.6664 6.53565 17.6593 6.63707L19.32 6.20999C24.884 5.00562 29.9526 9.40868 29.9997 15.0902C29.9999 15.0934 30 15.0967 30 15.1V19.89C30 21.62 29.6 23.02 27.87 23.02H22.22C20.7322 23.02 19.8822 22.2115 19.4833 21.01H16.41C15.01 21.01 13.68 20.49 12.48 19.91L12.1971 21L10.5 21.5L8.94931 21L9.75001 17.87C8.99507 17.0464 8.38614 16.0768 7.97172 15H4.14C2.96 15 2 14.04 2 12.86C2 12.16 2.34 11.51 2.91 11.11L9.03 6.82C9.01 6.66 9 6.5 9 6.33C9 3.94 10.95 2 13.34 2Z" fill="#636363"/>
<path d="M16.58 6.32996C16.58 8.12488 15.1249 9.57996 13.33 9.57996C11.5351 9.57996 10.08 8.12488 10.08 6.32996C10.08 4.53503 11.5351 3.07996 13.33 3.07996C15.1249 3.07996 16.58 4.53503 16.58 6.32996Z" fill="#FF8687"/>
<path d="M24.63 24.0201C25.5684 24.0201 26.4177 23.6357 27.0289 23.016C28.6821 22.9336 29.9955 21.5714 30 19.8986V20.6501C30 23.6101 27.59 26.0201 24.63 26.0201L18.99 26.0101C18.44 26.0101 18 26.4501 18 27.0001C18 27.5501 18.44 27.9901 18.99 27.9901L23.01 28.0001C23.56 28.0001 24.01 28.4501 24.01 29.0001C24 29.5601 23.55 30.0001 23 30.0001L18.98 29.9901C17.34 29.9901 16 28.6501 16 27.0001C16 25.3501 17.34 24.0101 18.99 24.0101L24.63 24.0201Z" fill="#FF8687"/>
<path d="M19.7321 21C20.3626 22.0969 21.4955 22.8684 22.8167 23H17.1111C16.4938 23 16 22.5556 16 22C16 21.4444 16.4938 21 17.1111 21H19.7321Z" fill="#FF8687"/>
<path d="M8.95003 21L8.54003 22.61C8.49003 22.8 8.64003 23 8.84003 23H11C11.42 23 11.73 22.8 11.87 22.26L12.19 21H8.95003Z" fill="#FF8687"/>
<path d="M7.62 11.81C7.62 12.2574 7.25735 12.62 6.81 12.62C6.36265 12.62 6 12.2574 6 11.81C6 11.3626 6.36265 11 6.81 11C7.25735 11 7.62 11.3626 7.62 11.81Z" fill="#1C1C1C"/>
<path d="M2 12.84C2 12.46 2.1 12.09 2.29 11.77C2.75 11.9 3.08 12.31 3.08 12.81C3.08 13.32 2.73 13.74 2.26 13.86C2.09 13.56 2 13.21 2 12.84Z" fill="#1C1C1C"/>
</svg>

<svg xmlns="http://www.w3.org/2000/svg" width="32" height="32" fill="none"><path fill="#212121" d="M10.32 10.64a4.32 4.32 0 1 0 0-8.64 4.32 4.32 0 0 0 0 8.64Z"/><path fill="#636363" d="M13.34 2a4.332 4.332 0 0 1 4.32 4.637l1.66-.427C24.884 5.006 29.953 9.409 30 15.09v4.8c0 1.73-.4 3.13-2.13 3.13h-5.65c-1.488 0-2.338-.808-2.737-2.01H16.41c-1.4 0-2.73-.52-3.93-1.1L12.197 21l-1.697.5-1.55-.5.8-3.13A9.065 9.065 0 0 1 7.972 15H4.14C2.96 15 2 14.04 2 12.86c0-.7.34-1.35.91-1.75l6.12-4.29C9.01 6.66 9 6.5 9 6.33A4.34 4.34 0 0 1 13.34 2Z"/><path fill="#FF8687" d="M16.58 6.33a3.25 3.25 0 1 1-6.5 0 3.25 3.25 0 0 1 6.5 0ZM24.63 24.02a3.36 3.36 0 0 0 2.399-1.004A3.128 3.128 0 0 0 30 19.899v.751c0 2.96-2.41 5.37-5.37 5.37l-5.64-.01c-.55 0-.99.44-.99.99s.44.99.99.99l4.02.01c.55 0 1 .45 1 1-.01.56-.46 1-1.01 1l-4.02-.01a2.99 2.99 0 0 1 .01-5.98l5.64.01Z"/><path fill="#FF8687" d="M19.732 21a4.021 4.021 0 0 0 3.085 2H17.11C16.494 23 16 22.556 16 22s.494-1 1.111-1h2.621ZM8.95 21l-.41 1.61c-.05.19.1.39.3.39H11c.42 0 .73-.2.87-.74l.32-1.26H8.95Z"/><path fill="#1C1C1C" d="M7.62 11.81a.81.81 0 1 1-1.62 0 .81.81 0 0 1 1.62 0ZM2 12.84c0-.38.1-.75.29-1.07.46.13.79.54.79 1.04 0 .51-.35.93-.82 1.05-.17-.3-.26-.65-.26-1.02Z"/></svg>
